X: 3353
M: C
L: 1/8
K: A
E2 |\
dfdB cecA | dcBA GEFG |\
dfed cBAG | B2A2 A2 :|
|: e2 |\
cece agfe | dcde d2d2 |\
dfed cBAG | B2A2 A2 :|


